governance/ui/public/councils/tc.svg

<svg width="81" height="80" viewBox="0 0 81 80" fill="none" xmlns="http://www.w3.org/2000/svg">
    <path
        d="M28.687 70.9909H28.7911L28.81 70.8885L29.1069 69.272L29.8327 67.7874L29.9206 67.6075H29.7204H29.4792C22.2861 64.536 16.5192 58.8594 13.3345 51.715L13.2846 51.6029L13.1716 51.6508L10.1049 52.9508L9.98782 53.0004L10.0395 53.1166C13.6125 61.1579 20.105 67.5428 28.2048 70.9809L28.2283 70.9909H28.2537H28.687ZM53.6719 70.7147L53.7202 70.8286L53.8346 70.7815C57.8783 69.1169 61.5532 66.6697 64.6481 63.5805C67.7431 60.4912 70.1971 56.8209 71.8692 52.7803L71.8787 52.7574V52.7325V52.5326V52.4457L71.7973 52.4154L68.664 51.2487L68.5508 51.2066L68.5048 51.3182C65.496 58.6181 59.7198 64.4301 52.4387 67.4839L52.323 67.5325L52.3719 67.648L53.6719 70.7147ZM13.3741 28.8487L13.4902 28.8949L13.5365 28.7788C16.4582 21.4467 22.1453 15.557 29.3707 12.3803L29.4836 12.3307L29.4354 12.2171L28.1354 9.15043L28.0861 9.03394L27.9702 9.08473C19.8659 12.6369 13.4844 19.2348 10.2043 27.4529L10.1579 27.5691L10.2741 27.6154L13.3741 28.8487ZM68.405 28.4475L68.4535 28.5633L68.5691 28.5143L71.6358 27.2143L71.7504 27.1657L71.7023 27.051C70.0097 23.0052 67.5328 19.3346 64.4145 16.2507C61.2962 13.1669 57.5983 10.731 53.534 9.08338L53.4148 9.03505L53.3699 9.1556L52.2032 12.2889L52.1609 12.4024L52.2731 12.4483C55.8821 13.9231 59.1646 16.0955 61.9328 18.8409C64.701 21.5863 66.9004 24.8508 68.405 28.4475ZM36.8538 32.625C36.3118 32.3689 35.7191 32.2381 35.1198 32.2424H30.3535H30.2285V32.3674V35.5341V35.6591H30.3535H34.8522C34.9421 35.661 35.0307 35.6817 35.1121 35.72C35.1932 35.7582 35.2655 35.813 35.3241 35.8808L36.9895 37.9459L37.0857 38.0652L37.1832 37.947L39.3832 35.2803L39.4482 35.2015L39.384 35.1221L38.2506 33.7221L38.2506 33.7221C37.8733 33.2561 37.3959 32.8811 36.8538 32.625ZM43.457 33.688L43.4557 33.6895L38.4932 39.9176L35.3313 43.1128L35.3252 43.119L35.32 43.1259C35.2669 43.197 35.1971 43.2539 35.1168 43.2917C35.0366 43.3295 34.9482 43.3469 34.8596 43.3426L34.8596 43.3424H34.8535H30.3535H30.2285V43.4674V46.8008V46.9258H30.3535H35.0868C35.69 46.9256 36.2858 46.7931 36.8322 46.5377C37.3786 46.2823 37.8623 45.9102 38.2494 45.4477L38.2506 45.4461L40.8541 42.232L43.4901 45.4467L43.4903 45.4469C43.8707 45.9089 44.3485 46.2811 44.8896 46.5367C45.4307 46.7924 46.0216 46.9253 46.62 46.9258H46.6201H51.3535H51.4785V46.8008V43.8341V43.7091H51.3535L46.8535 43.7091L46.8514 43.7091C46.7689 43.7105 46.6871 43.6941 46.6115 43.661C46.5366 43.6282 46.4695 43.5798 46.4148 43.519L43.1501 39.6014L46.4155 35.7482L46.4156 35.7483L46.4183 35.7448C46.4707 35.6783 46.5372 35.6241 46.6129 35.5863C46.6882 35.5486 46.7709 35.528 46.8551 35.5258H51.3535H51.4785V35.4008V32.3341V32.2091H51.3535H46.6206C46.0165 32.2046 45.4191 32.335 44.8718 32.5907C44.3244 32.8466 43.841 33.2215 43.457 33.688ZM27.3644 56.5548C31.1943 59.701 35.9967 61.422 40.9532 61.4245C43.7687 61.4351 46.5584 60.8863 49.1601 59.81C51.7618 58.7336 54.1237 57.1512 56.1088 55.1545C59.6148 51.6509 61.7976 47.04 62.2853 42.1074C62.7729 37.1748 61.5352 32.2257 58.7831 28.1034C56.0309 23.981 51.9345 20.9404 47.1919 19.4996C42.4492 18.0589 37.3538 18.3071 32.7736 20.202C28.1935 22.0968 24.412 25.5212 22.0735 29.8915C19.735 34.2619 18.9842 39.3078 19.949 44.1697C20.9137 49.0315 23.5344 53.4085 27.3644 56.5548ZM32.5482 24.2751C35.1334 22.8891 38.0205 22.1619 40.9538 22.1579C44.4841 22.153 47.9365 23.1956 50.874 25.1537C53.8116 27.1118 56.1022 29.8973 57.456 33.1577C58.8098 36.4181 59.1659 40.0069 58.4792 43.4698C57.7926 46.9327 56.094 50.114 53.5985 52.6112C51.5251 54.6861 48.9721 56.2177 46.1655 57.0705C43.3589 57.9233 40.3853 58.071 37.508 57.5005C34.6307 56.9299 31.9385 55.6588 29.6697 53.7996C27.4009 51.9403 25.6254 49.5504 24.5006 46.8414C23.3757 44.1323 22.9362 41.1877 23.2208 38.2682C23.5055 35.3488 24.5055 32.5445 26.1324 30.1038C27.7594 27.663 29.963 25.661 32.5482 24.2751Z"
        fill="white" stroke="white" stroke-width="0.25" />
</svg>

<svg width="81" height="80" fill="none" viewBox="0 0 81 80" xmlns="http://www.w3.org/2000/svg">
  <path fill="#fff" stroke="#fff" stroke-width=".25" d="M28.687 70.99h.104l.019-.102.297-1.616.726-1.485.088-.18h-.442a31 31 0 0 1-16.144-15.892l-.05-.112-.113.048-3.067 1.3-.117.05.052.116A34.73 34.73 0 0 0 28.205 70.98l.023.01zm24.985-.275.048.114.115-.047A33.2 33.2 0 0 0 71.869 52.78l.01-.023v-.311l-.082-.03-3.133-1.167-.113-.042-.046.111a29.88 29.88 0 0 1-16.066 16.166l-.116.049.049.115zM13.374 28.849l.116.046.046-.116A30.08 30.08 0 0 1 29.372 12.38l.113-.05-.049-.113-1.3-3.067-.049-.116-.116.05a33.7 33.7 0 0 0-17.766 18.369l-.046.116.116.046zm55.031-.401.049.115.115-.049 3.067-1.3.114-.048-.048-.115A33.22 33.22 0 0 0 53.534 9.083l-.12-.048-.044.12-1.167 3.134-.042.113.112.046a29.64 29.64 0 0 1 16.132 16Zm-31.551 4.177a4 4 0 0 0-1.734-.383h-4.891v3.417h4.623a.64.64 0 0 1 .472.222l1.666 2.065.096.12.097-.119 2.2-2.667.065-.078-.064-.08-1.133-1.4a4 4 0 0 0-1.397-1.097Zm6.603 1.063-.001.002-4.963 6.228-3.162 3.195-.006.006-.005.007a.54.54 0 0 1-.46.217h-4.632v3.583h4.859a4.13 4.13 0 0 0 3.162-1.478l.002-.002 2.603-3.214 2.636 3.215a4.06 4.06 0 0 0 3.13 1.479h4.858v-3.217h-4.627a.57.57 0 0 1-.436-.19l-3.265-3.918 3.266-3.853.002-.003a.57.57 0 0 1 .437-.22h4.623V32.21h-4.857a4.06 4.06 0 0 0-3.164 1.479ZM27.364 56.555a21.43 21.43 0 0 0 13.59 4.87 21.26 21.26 0 0 0 15.155-6.27 21.425 21.425 0 1 0-28.745 1.4Zm5.184-32.28a17.841 17.841 0 1 1 16.86 31.448 17.841 17.841 0 0 1-16.86-31.448Z"/>
</svg>
